X: 38
T: 34. LITTLE HORNPIPE
B: Sam Bayard, "Hill Country Tunes" 1944 #34
S: Played by Mrs Sarah Armstrong, (near) Derry, PA, Nov 13 1943.
N: The first part occurs with different second parts in other collections.
R: reel
M: 4/4
L: 1/8
Z: 2010 John Chambers <jc:trillian.mit.edu>
K: D
z2 | D2FE D2FG | AAdB "a."AGFE | D2FE D2F2 | A,2E2 D2E2 |
D2FE "b."D2FG | AAdB A2F2 | "c."GBAG FDED | A,2D2 D2 :|
|: A2 | d2dA d2dA | dAdA B2A2 | A2ed c2ed | cded cABc |
d2dA d2dA | dAdA B2A2 | GBAG FDED | A,2D2 D2 |]
P: VAR:
"a."AAFE || "b."DE || "c."GBAA |] y8 y8 y8 y8 y8 y8

%%sep 2 1 500
%%sep 1 1 500

